X:10
T:J'ai passe devant ta porte (Steve Riley simple)
R:waltz
M:6/4
L:1/4
Q:1/4=90
K:C
GF|:E2D C2D|E4 FE | D2C B,2C | D4 GF|E2C FFG|A4 GF |E2E D2D |C4 GF:|
